src/images_karasa_jaga_svg/cmd/sc_dbtabledelete.svg

<svg height="16" width="16" xmlns="http://www.w3.org/2000/svg" xmlns:xlink="http://www.w3.org/1999/xlink"><radialGradient id="a" cx="-32" cy="9.6" gradientTransform="matrix(3.0760953 3.0760953 -15.380477 15.380477 354.61753 -37.56895)" gradientUnits="userSpaceOnUse" r="5.6"><stop offset="0" stop-color="#a50606"/><stop offset="1" stop-color="#f20909"/></radialGradient><filter id="b"><feGaussianBlur stdDeviation="2.4"/></filter><linearGradient id="c" gradientTransform="matrix(.1133598 0 0 .1691546 .642795 -76.95463)" gradientUnits="userSpaceOnUse" x1="399.77466" x2="399.77466" y1="681.00012" y2="549.33234"><stop offset="0" stop-color="#cbcbcd"/><stop offset=".5" stop-color="#e0e0e2"/><stop offset="1" stop-color="#fff"/></linearGradient><g transform="scale(.125)"><g><path d="m85.480617 232.8761h116.296063c1.02599 0 1.85197.97507 1.85197 2.18627v107.05603c0 1.21119-.82598 2.18627-1.85197 2.18627h-116.296063c-1.025991 0-1.85197-.97508-1.85197-2.18627v-107.05603c0-1.2112.825979-2.18627 1.85197-2.18627z" filter="url(#b)" opacity=".5" transform="matrix(1 0 0 .9333333 -79.62865 -205.35102)"/><path d="m7.999997 16h112.000003v96h-112.000003z" fill="url(#c)"/><path d="m78.20266 37.61897v-2.7448z" fill="#fff" fill-opacity=".756881"/><path d="m8 48h112v64h-112z" fill="#fff"/><g fill="#cacacc"><path d="m7.999997 88h112.000003v8h-112.000003z"/><path d="m7.999997 64h112.000003v8h-112.000003z"/><path d="m40 48h8v64h-8z"/><path d="m80 48h8v64h-8z"/></g></g><g><path d="m74.492188 16 8.089843 8.089844-9.089843 9.089844a9.5520215 9.5520215 0 0 0 0 13.507812l7.910156 7.910156a9.5520215 9.5520215 0 0 0 13.507812 0l9.089844-9.089844 9.08984 9.089844a9.5520215 9.5520215 0 0 0 6.91016 2.794922v-41.392578z" fill="#fff" fill-opacity=".871324"/><path d="m119.84361.33487-15.84361 15.84361-15.84361-15.84361-7.91076 7.91076 15.84361 15.84361-15.84361 15.84361 7.91076 7.91076 15.84361-15.84361 15.84361 15.84361 7.91076-7.91076-15.84361-15.84361 15.84361-15.84361z" fill="url(#a)"/></g></g></svg>

<?xml version="1.0" encoding="UTF-8" standalone="no"?>
<svg
   xmlns:dc="http://purl.org/dc/elements/1.1/"
   xmlns:cc="http://creativecommons.org/ns#"
   xmlns:rdf="http://www.w3.org/1999/02/22-rdf-syntax-ns#"
   xmlns:svg="http://www.w3.org/2000/svg"
   xmlns="http://www.w3.org/2000/svg"
   xmlns:xlink="http://www.w3.org/1999/xlink"
   xmlns:sodipodi="http://sodipodi.sourceforge.net/DTD/sodipodi-0.dtd"
   xmlns:inkscape="http://www.inkscape.org/namespaces/inkscape"
   height="128"
   width="128"
   version="1.1"
   id="svg311"
   sodipodi:docname="sc_dbtabledelete.svg"
   inkscape:version="0.92.3 (unknown)"
   inkscape:export-filename="/home/rizmut/Dokumen/Rizmut/Github/libreoffice-style-karasa-jaga/build/images_karasa_jaga/cmd/sc_dbtabledelete.png"
   inkscape:export-xdpi="12"
   inkscape:export-ydpi="12">
  <metadata
     id="metadata317">
    <rdf:RDF>
      <cc:Work
         rdf:about="">
        <dc:format>image/svg+xml</dc:format>
        <dc:type
           rdf:resource="http://purl.org/dc/dcmitype/StillImage" />
        <dc:title></dc:title>
      </cc:Work>
    </rdf:RDF>
  </metadata>
  <defs
     id="defs315">
    <linearGradient
       id="d-8"
       gradientTransform="matrix(1.3755238,0,0,1.8570645,-22.548199,-92.562977)"
       gradientUnits="userSpaceOnUse"
       x1="-7.734014"
       x2="110.05683"
       y1="105.19644"
       y2="81.818565">
      <stop
         offset="0"
         id="stop19" />
      <stop
         offset="1"
         stop-opacity="0"
         id="stop21" />
    </linearGradient>
    <filter
       id="e-1">
      <feGaussianBlur
         stdDeviation=".6715998"
         id="feGaussianBlur24" />
    </filter>
    <radialGradient
       id="f-9"
       cx="42.617531"
       cy="120.64188"
       gradientTransform="matrix(1.909059,1.8392116,-8.6222515,7.5766472,1009.8522,-881.36145)"
       gradientUnits="userSpaceOnUse"
       r="3.406888">
      <stop
         offset="0"
         stop-color="#b4942a"
         id="stop27" />
      <stop
         offset="1"
         stop-color="#e4dcc9"
         id="stop29" />
    </radialGradient>
    <linearGradient
       id="g-9"
       gradientTransform="matrix(0.9986497,0,0,0.9998891,0.14044,0.005323)"
       gradientUnits="userSpaceOnUse"
       x1="75.848022"
       x2="81.452583"
       y1="72.804123"
       y2="77.047241">
      <stop
         offset="0"
         stop-color="#252525"
         id="stop32" />
      <stop
         offset=".5"
         stop-color="#252525"
         id="stop34" />
      <stop
         offset=".75"
         stop-color="#252525"
         id="stop36-7" />
      <stop
         offset="1"
         id="stop38-8" />
    </linearGradient>
    <linearGradient
       id="h-2"
       gradientTransform="matrix(0.9986497,0,0,0.9998891,0.14044,0.005323)"
       gradientUnits="userSpaceOnUse"
       x1="76.708534"
       x2="80.579521"
       y1="83.325729"
       y2="87.154587">
      <stop
         offset="0"
         stop-color="#d4a100"
         stop-opacity=".976471"
         id="stop41-5" />
      <stop
         offset="1"
         stop-color="#ffc712"
         id="stop43-3" />
    </linearGradient>
    <linearGradient
       id="i-4"
       gradientTransform="matrix(1.2875994,1.1737414,-0.5465891,0.6213041,81.686465,27.89447)"
       gradientUnits="userSpaceOnUse"
       x1="11.326384"
       x2="14.493531"
       y1="57.383999"
       y2="57.383999">
      <stop
         offset="0"
         stop-color="#9a7600"
         id="stop46" />
      <stop
         offset=".09292036"
         stop-color="#e3ad00"
         id="stop48" />
      <stop
         offset=".5043171"
         stop-color="#ffcd2c"
         id="stop50" />
      <stop
         offset=".91571385"
         stop-color="#e3ad00"
         id="stop52" />
      <stop
         offset="1"
         stop-color="#b98d00"
         id="stop54" />
    </linearGradient>
    <linearGradient
       id="j-9"
       gradientTransform="matrix(0.9992082,0,0,0.9993395,0.108362,-0.090375)"
       gradientUnits="userSpaceOnUse"
       x1="114.92793"
       x2="100.65602"
       y1="-22.560064"
       y2="-22.052734">
      <stop
         offset="0"
         stop-color="#980000"
         id="stop57" />
      <stop
         offset="1"
         stop-color="#db5c5c"
         id="stop59" />
    </linearGradient>
    <linearGradient
       id="k-0"
       gradientUnits="userSpaceOnUse"
       x1="-12.817558"
       x2="82.172836"
       y1="7.4622769"
       y2="7.4622769">
      <stop
         offset="0"
         stop-color="#fff"
         stop-opacity=".683453"
         id="stop62" />
      <stop
         offset="1"
         stop-color="#fff"
         stop-opacity="0"
         id="stop64" />
    </linearGradient>
    <filter
       id="l">
      <feGaussianBlur
         stdDeviation=".31468463"
         id="feGaussianBlur67" />
    </filter>
    <radialGradient
       id="m"
       cx="34.677639"
       cy="7.4622769"
       gradientTransform="matrix(-1.5103,0.00264127,-1.1671e-4,-0.00911022,87.0522,7.438666)"
       gradientUnits="userSpaceOnUse"
       r="47.595196"
       xlink:href="#n" />
    <linearGradient
       id="n">
      <stop
         offset="0"
         stop-color="#fff"
         id="stop71" />
      <stop
         offset="1"
         stop-color="#fff"
         stop-opacity="0"
         id="stop73" />
    </linearGradient>
    <linearGradient
       id="o"
       gradientTransform="matrix(0.6182226,0,0,0.6232687,24.10803,47.993844)"
       gradientUnits="userSpaceOnUse"
       x1="33.342377"
       x2="24.450998"
       y1="117.83894"
       y2="107.35519">
      <stop
         offset="0"
         id="stop76" />
      <stop
         offset="1"
         stop-color="#515151"
         id="stop78" />
    </linearGradient>
    <linearGradient
       id="p"
       gradientTransform="matrix(1.6732108,1.5189394,-1.5009523,1.6928488,18.675678,-24.465565)"
       gradientUnits="userSpaceOnUse"
       x1="48.498562"
       x2="48.732723"
       xlink:href="#n"
       y1="0.81150502"
       y2="2.3657269" />
    <linearGradient
       id="q"
       gradientTransform="matrix(0.9973012,0,0,0.9997782,0.28069,0.010646)"
       gradientUnits="userSpaceOnUse"
       x1="92.226158"
       x2="96.579895"
       y1="54.119438"
       y2="57.15118">
      <stop
         offset="0"
         stop-color="#ea3838"
         id="stop82" />
      <stop
         offset="1"
         stop-color="#c40000"
         id="stop84" />
    </linearGradient>
    <radialGradient
       id="r"
       cx="49.011971"
       cy="2.6743081"
       gradientTransform="matrix(2.2600183,0,0,0.2752449,-2.259041,-25.415382)"
       gradientUnits="userSpaceOnUse"
       r="1.724619"
       xlink:href="#s" />
    <linearGradient
       id="s">
      <stop
         offset="0"
         stop-color="#fff"
         id="stop88" />
      <stop
         offset="1"
         stop-color="#252525"
         stop-opacity="0"
         id="stop90" />
    </linearGradient>
    <radialGradient
       id="t"
       cx="49.011971"
       cy="2.6743081"
       gradientTransform="matrix(1.550633,0,0,0.1873121,21.621938,-31.864287)"
       gradientUnits="userSpaceOnUse"
       r="1.724619"
       xlink:href="#s" />
    <radialGradient
       id="u"
       cx="49.011971"
       cy="2.6743081"
       gradientTransform="matrix(1.5495914,0,0,0.1876849,-193.24041,-23.535874)"
       gradientUnits="userSpaceOnUse"
       r="1.724619"
       xlink:href="#s" />
    <radialGradient
       id="c-6"
       cx="-32"
       cy="9.6000004"
       gradientTransform="matrix(3.0760953,3.0760953,-15.380477,15.380477,354.61753,-37.56895)"
       gradientUnits="userSpaceOnUse"
       r="5.5999999">
      <stop
         offset="0"
         stop-color="#a50606"
         id="stop12" />
      <stop
         offset="1"
         stop-color="#f20909"
         id="stop14" />
    </radialGradient>
  </defs>
  <sodipodi:namedview
     pagecolor="#ffffff"
     bordercolor="#666666"
     borderopacity="1"
     objecttolerance="10"
     gridtolerance="10"
     guidetolerance="10"
     inkscape:pageopacity="0"
     inkscape:pageshadow="2"
     inkscape:window-width="1366"
     inkscape:window-height="706"
     id="namedview313"
     showgrid="false"
     inkscape:zoom="0.65186406"
     inkscape:cx="-354.50544"
     inkscape:cy="20.164062"
     inkscape:window-x="0"
     inkscape:window-y="0"
     inkscape:window-maximized="1"
     inkscape:current-layer="svg311" />
  <filter
     id="a">
    <feGaussianBlur
       stdDeviation="2.4"
       id="feGaussianBlur2" />
  </filter>
  <linearGradient
     id="b"
     gradientTransform="matrix(0.1133598,0,0,0.1691546,0.642795,-76.95463)"
     gradientUnits="userSpaceOnUse"
     x1="399.77466"
     x2="399.77466"
     y1="681.00012"
     y2="549.33234">
    <stop
       offset="0"
       stop-color="#cbcbcd"
       id="stop5" />
    <stop
       offset=".5"
       stop-color="#e0e0e2"
       id="stop7" />
    <stop
       offset="1"
       stop-color="#fff"
       id="stop9" />
  </linearGradient>
  <filter
     id="c"
     color-interpolation-filters="sRGB"
     height="1.072142"
     width="1.071866"
     x="-.035933"
     y="-.036071">
    <feGaussianBlur
       stdDeviation=".66434216"
       id="feGaussianBlur12" />
  </filter>
  <radialGradient
     id="d"
     cx="-55.685837"
     cy="-347.11612"
     gradientTransform="matrix(-0.91762954,-0.24587809,0.26650439,-0.99460792,-14.509941,-705.18366)"
     gradientUnits="userSpaceOnUse"
     r="22.14249">
    <stop
       offset="0"
       stop-color="#82c133"
       id="stop15" />
    <stop
       offset="1"
       stop-color="#72b028"
       id="stop17" />
  </radialGradient>
  <linearGradient
     id="e"
     gradientUnits="userSpaceOnUse"
     x1="328.12448"
     x2="336.98077"
     y1="120.81158"
     y2="87.759453">
    <stop
       offset="0"
       stop-color="#96ff00"
       id="stop20" />
    <stop
       offset="1"
       stop-color="#609800"
       id="stop22" />
  </linearGradient>
  <clipPath
     id="f">
    <circle
       cx="343.91208"
       cy="92.325096"
       r="36"
       transform="matrix(.86602539 .50000002 .49999965 -.86602561 0 0)"
       id="circle25" />
  </clipPath>
  <filter
     id="g">
    <feGaussianBlur
       stdDeviation="2.8805897"
       id="feGaussianBlur28" />
  </filter>
  <radialGradient
     id="h"
     cx="343.99899"
     cy="92"
     gradientTransform="matrix(0.46130197,0,0,0.46130166,-219.03541,-372.17548)"
     gradientUnits="userSpaceOnUse"
     r="36">
    <stop
       offset="0"
       stop-color="#e5ff00"
       id="stop31" />
    <stop
       offset="1"
       stop-color="#bff500"
       stop-opacity="0"
       id="stop33" />
  </radialGradient>
  <linearGradient
     id="i"
     gradientTransform="matrix(0,0.51133072,-0.51133109,0,76.138665,324.51289)"
     gradientUnits="userSpaceOnUse"
     x1="-80.00296"
     x2="-45.096584"
     y1="-131.93112"
     y2="-131.93112">
    <stop
       offset="0"
       stop-color="#fff"
       id="stop36" />
    <stop
       offset="1"
       stop-color="#fff"
       stop-opacity="0"
       id="stop38" />
  </linearGradient>
  <linearGradient
     id="j"
     gradientUnits="userSpaceOnUse"
     x1="122.000035"
     x2="122.000035"
     y1="61.999997"
     y2="9.932843">
    <stop
       offset="0"
       stop-color="#314d00"
       stop-opacity="0"
       id="stop41" />
    <stop
       offset=".5"
       stop-color="#194d00"
       id="stop43" />
    <stop
       offset="1"
       stop-color="#2d4d00"
       stop-opacity="0"
       id="stop45" />
  </linearGradient>
  <filter
     id="k">
    <feGaussianBlur
       stdDeviation="1.04"
       id="feGaussianBlur48" />
  </filter>
  <g
     id="g1345">
    <path
       d="M 85.480617,232.8761 H 201.77668 c 1.02599,0 1.85197,0.97507 1.85197,2.18627 V 342.1184 c 0,1.21119 -0.82598,2.18627 -1.85197,2.18627 H 85.480617 c -1.025991,0 -1.85197,-0.97508 -1.85197,-2.18627 V 235.06237 c 0,-1.2112 0.825979,-2.18627 1.85197,-2.18627 z"
       transform="matrix(1,0,0,0.9333333,-79.62865,-205.35102)"
       id="path51"
       inkscape:connector-curvature="0"
       style="opacity:0.5;filter:url(#a)" />
    <path
       d="M 7.999997,16 H 120 v 96 H 7.999997 Z"
       id="path127"
       style="fill:url(#b)"
       inkscape:connector-curvature="0" />
    <path
       style="fill:#ffffff;fill-opacity:0.756881"
       inkscape:connector-curvature="0"
       id="path155"
       d="m 78.20266,37.61897 v -2.7448 z" />
    <path
       inkscape:connector-curvature="0"
       id="path279"
       d="m 8,48 h 112 v 64 H 8 Z"
       style="fill:#ffffff" />
    <path
       d="M 7.999997,88 H 120 v 8 H 7.999997 Z"
       id="path283"
       inkscape:connector-curvature="0"
       style="fill:#cacacc" />
    <path
       d="M 7.999997,64 H 120 v 8 H 7.999997 Z"
       id="path285"
       inkscape:connector-curvature="0"
       style="fill:#cacacc" />
    <path
       d="m 40,48 h 8 v 64 h -8 z"
       id="path287"
       inkscape:connector-curvature="0"
       style="fill:#cacacc" />
    <path
       d="m 80,48 h 8 v 64 h -8 z"
       id="path289"
       inkscape:connector-curvature="0"
       style="fill:#cacacc" />
  </g>
  <g
     id="g1212">
    <path
       d="m 74.492188,16 8.089843,8.089844 -9.089843,9.089844 a 9.5520215,9.5520215 0 0 0 0,13.507812 l 7.910156,7.910156 a 9.5520215,9.5520215 0 0 0 13.507812,0 L 104,45.507812 l 9.08984,9.089844 A 9.5520215,9.5520215 0 0 0 120,57.392578 V 16 Z"
       id="path265"
       inkscape:connector-curvature="0"
       style="fill:#ffffff;fill-opacity:0.87132401" />
    <path
       d="M 119.84361,0.33487 104,16.17848 88.15639,0.33487 80.24563,8.24563 96.08924,24.08924 80.24563,39.93285 88.15639,47.84361 104,32 119.84361,47.84361 127.75437,39.93285 111.91076,24.08924 127.75437,8.24563 Z"
       id="path267"
       style="fill:url(#c-6)"
       inkscape:connector-curvature="0" />
  </g>
</svg>
